!!!OTL@@DE: Einsam bin ich nicht alleine
!!!COM: Weber, Carl Maria von
!!!ODT: 1820
!!!OMD: Larghetto
!!!LYR: Wolf, Pius Alexander
!!!ONB: Aus "Preciosa"
!!!LDT: 1820
!!!OCL: Erk, Ludwig
!!!GCO: Deutscher Liederschatz, Band 1
**kern	**kern	**kern
*staff3	*staff2	*staff1
*Ipiano	*Ipiano	*Ivox
=1-	=1-	=1-
*clefF4	*clefG2	*clefG2
*k[]	*k[]	*k[]
*C:	*C:	*C:
*M6/8	*M6/8	*M6/8
*MM52	*MM52	*MM52
4C\ 4G\	4c/ 4e/	4g/
8C\ 8G\	8c/ 8e/	8e/
4C\ 4G\	4c/ 4e/	4cc\
8C\ 8G\	8c/ 8e/	8g/
=2	=2	=2
4GG/ 4G/	4B/ 4d/ 4f/	4f/
8GG/ 8G/	8B/ 8d/ 8f/	8d/
4GG/ 4G/	4B/ 4d/ 4f/	4dd\
8GG/ 8G/	8B/ 8d/ 8f/	8g/
=3	=3	=3
4C\ 4G\	4c/ 4e/	(8g/L
.	.	8cc/J)
8C\ 8G\	8c/ 8e/	8cc\
4GG/ 4G/	4d/ 4f/	(8cc\L
.	.	8b\J)
8GG/ 8G/	8d/ 8f/	8g/
=4	=4	=4
4C\ 4G\	4c/ 4e/	(8g\L
.	.	8ee\J)
8C\ 8G\	8c/ 8e/	(16dd\LL
.	.	16cc\JJ)
4GG/ 4G/	4d/ 4f/	(8cc\
.	.	4b\)
8GG/ 8G/	8d/ 8f/	.
=5	=5	=5
4C\ 4G\	4c/ 4e/	4g/
8C/	8B-/ 8c/ 8e/	8cc\
4FF/	4A/ 4c/ 4f/	(8.dd\L
.	.	16cc\Jk)
8FF/	8A/ 8c/ 8f/	(16a/LL
.	.	16f/JJ)
=6	=6	=6
4DD/	4A/ 4c/ 4f#/	4f#/
8DD/	8A/ 8c/ 8f#/	8dd\
4GG/	4G/ 4B/ 4fn/	(8.ee\L
.	.	16dd\Jk)
8GG/	8G/ 8B/ 8f/	(16b/LL
.	.	16g/JJ)
=7	=7	=7
4C/	4G/ 4c/ 4e/	4ee\
8C/	8A/ 8c/ 8f/	(32dd\LLL
.	.	32cc\
.	.	32b\
.	.	32a\JJJ)
4C/	4G/ 4c/ 4e/	4g/
8C/	8G/ 8c/ 8e/	8e/
=8	=8	=8
4GG/	4G/ 4B/ 4f/	4d/
8GG/	8G/ 8B/ 8f/	(16a/LL
.	.	16g/JJ)
(4GG/	[4G/ 4B/ 4d/ (4f/	(4f/
8C/)	8G/] 8c/ 8e/)	8e/)
=9	=9	=9
4C/	4G/ 4c/ 4e/	(8e/L
.	.	8g/J)
8C/	8G/ 8c/ 8e/	8cc\
4GG/	4G/ 4c/ 4e/	(8.ee\L
.	.	16cc\Jk)
8r	8r	(16g/LL
.	.	16e/JJ)
=10	=10	=10
4GG/	4G/ 4B/ 4f/	(8.g/L
.	.	16f/Jk)
8r	8r	(16e/LL
.	.	16d/JJ)
4C/	4G/ 4c/ 4e/	4c/
8r;	8r;	8r;
==	==	==
*-	*-	*-
!!!ENC: Craig Stuart Sapp
!!!END: 2004/05/26/
!!!EFL: 033/651
